package/converter/svg/thin/train-subway-tunnel.svg

<svg xmlns="http://www.w3.org/2000/svg" viewBox="0 0 512 512"><!-- Font Awesome Pro 6.0.0-alpha2 by @fontawesome - https://fontawesome.com License - https://fontawesome.com/license (Commercial License) --><path d="M320 128H192C147.889 128 112 163.887 112 208V368C112 406.154 138.895 438.047 174.691 445.996L122.344 498.344C119.219 501.469 119.219 506.531 122.344 509.656C123.906 511.219 125.953 512 128 512S132.094 511.219 133.656 509.656L195.312 448H316.688L378.344 509.656C379.906 511.219 381.953 512 384 512S388.094 511.219 389.656 509.656C392.781 506.531 392.781 501.469 389.656 498.344L337.309 445.996C373.105 438.047 400 406.154 400 368V208C400 163.887 364.111 128 320 128ZM384 368C384 403.346 355.346 432 320 432H192C156.654 432 128 403.346 128 368V208C128 172.652 156.654 144 192 144H320C355.346 144 384 172.652 384 208V368ZM176 352C167.164 352 160 359.162 160 368C160 376.836 167.164 384 176 384S192 376.836 192 368C192 359.162 184.836 352 176 352ZM336 352C327.164 352 320 359.162 320 368C320 376.836 327.164 384 336 384S352 376.836 352 368C352 359.162 344.836 352 336 352ZM320 192H192C174.326 192 160 206.326 160 224V288C160 305.672 174.326 320 192 320H320C337.674 320 352 305.672 352 288V224C352 206.326 337.674 192 320 192ZM336 288C336 296.822 328.822 304 320 304H192C183.178 304 176 296.822 176 288V224C176 215.178 183.178 208 192 208H320C328.822 208 336 215.178 336 224V288ZM256 0C114.844 0 0 114.844 0 256V504C0 508.422 3.578 512 8 512S16 508.422 16 504V256C16 123.656 123.656 16 256 16S496 123.656 496 256V504C496 508.422 499.578 512 504 512S512 508.422 512 504V256C512 114.844 397.156 0 256 0Z"/></svg>

<svg xmlns="http://www.w3.org/2000/svg" viewBox="0 0 512 512"><!--! Font Awesome Pro 6.6.0 by @fontawesome - https://fontawesome.com License - https://fontawesome.com/license (Commercial License) Copyright 2024 Fonticons, Inc. --><path d="M16 256C16 123.5 123.5 16 256 16s240 107.5 240 240l0 248c0 4.4 3.6 8 8 8s8-3.6 8-8l0-248C512 114.6 397.4 0 256 0S0 114.6 0 256L0 504c0 4.4 3.6 8 8 8s8-3.6 8-8l0-248zM192 144l128 0c35.3 0 64 28.7 64 64l0 160c0 35.3-28.7 64-64 64l-128 0c-35.3 0-64-28.7-64-64l0-160c0-35.3 28.7-64 64-64zm-80 64l0 160c0 38.2 26.8 70.2 62.6 78.1l-52.2 52.2c-3.1 3.1-3.1 8.2 0 11.3s8.2 3.1 11.3 0L195.3 448l121.4 0 61.7 61.7c3.1 3.1 8.2 3.1 11.3 0s3.1-8.2 0-11.3l-52.2-52.2c35.8-7.9 62.6-39.9 62.6-78.1l0-160c0-44.2-35.8-80-80-80l-128 0c-44.2 0-80 35.8-80 80zm64 176a16 16 0 1 0 0-32 16 16 0 1 0 0 32zm176-16a16 16 0 1 0 -32 0 16 16 0 1 0 32 0zM248 208l0 96-56 0c-8.8 0-16-7.2-16-16l0-64c0-8.8 7.2-16 16-16l56 0zm16 0l56 0c8.8 0 16 7.2 16 16l0 64c0 8.8-7.2 16-16 16l-56 0 0-96zm-72-16c-17.7 0-32 14.3-32 32l0 64c0 17.7 14.3 32 32 32l128 0c17.7 0 32-14.3 32-32l0-64c0-17.7-14.3-32-32-32l-128 0z"/></svg>
